X:1
T:Tal e'il mio stato
T:Luca Marenzio
T:Source : Il terzo libro delle Villanelle a tre voci---Venetia---G.Vincenzi---1587. Editor : André Vierendeels (31/05/17).
T:Notes : Original clefs : C1, C2, F4 Editorial accidentals above the staff
T:Tal e'il mio stato
T:©
T:©
C:Luca Marenzio
Z:©
%%score [ 1 2 3 ]
L:1/8
Q:1/4=120
M:4/4
K:C
V:1 treble nm="Soprano 1" snm="S 1"
V:2 treble nm="Soprano 2" snm="S 2"
V:3 bass nm="Bass" snm="B"
V:1
"^1)" A4 c4- | c2 B2 B3 c | d4 d4 | e2 e4 d2 | c3 c c2 c2 | d2 e2 d4 | c8 :: e2 d4 c2 | B2 A2 B4- | %9
w: Tal e'il|_ mio sta- t'o|Clo- ri,|che se dentr'|ar- do'ag- ghiac- cio'an-|cor di fuo-|ri,|ne'il foc'- o|ghiac- cio ma-|
w: A m'io|_ e'l dol- ce'A-|mo- re,|fà c'hor gio-|is- ca'ed hor si|strug- ga'il co-|re,|ne gio- ia,|ne mar- ti-|
 B4 B4 | z2 A2 d3 c | B2 A2 B4 | A8 :| %13
w: * i,|da fin al-|li miei gua-|i.|
w: * re,|an- cor mi|fa mo- ri-|re.|
V:2
"^2)""^1)" E4 A4- | A2 ^G2 G3 A | B4 B4 | c2 c4 B2 | A3 A A2 G2 | A2 c2 B4 | c8 :: c2 B4 A2 | %8
w: Tal e'il|_ mio sta- t'o|Clo- ri,|che se dentr'|ard' ag- ghiac- ci'an-|cor di fuo-|ri,|ne'il foc' o|
w: Mi- ro'il|_ mio vi- vo|So- le,|e'l suo- no'as-|col- to'an- cor di|sue pa- ro-|le,|ne'l par- lar,|
 ^G2 A2 G4- | G4 ^G2 =G2 | A3 G ^F2 F2 | ^G2 A4 G2 | A8 :| %13
w: ghiac- cio ma-|* i, da|fin al- li miei|gua- * *|i.|
w: ne'l suo lu-|* me, puo|far, ch'io mi con-|su- * *|me.|
V:3
"^3)""^1)""^4)" A,,4 A,,4- | A,,2 E,2 E,3 A, |"^-natural" G,4 G,4 | C,2 C,4 D,2 | F,3 F, F,2 E,2 | %5
w: Tal e'il|_ mio sta- t'o|Clo- ri,|che se dentr'|ard' ag- ghiac- ci'an-|
w: Co- si|_ fra mor- t'è|vi- ta,|Clo- ri vi-|vro fin c'hab- bia'ohi-|
 D,2 C,2 G,4 | C,8 :: C2 G,4 A,2 | E,2 F,2 E,4- | E,4 E,2 E,2 | F,3 E, D,2 D,2 | E,8 | A,,8 :| %13
w: cor di fuo-|ri,|ne'il foc' o|ghiac- ciio ma-|* i, da|fin al- li miei|gua-|i.|
w: me la vi-|ta,|o'l Cie- l'o'A-|mo- re'o for-|* te, mi|do- ni'o Clo- ri|mor-|te.|

